X: 134
T: Pretty Maggie Morrisey
T: Reel, G
L: 1/16
M: C|
K: G
|: B2c2| d2B2G2B2 c2A2F2A2| G2B2A2F2 G4B2c2| d2g2f2g2 e2a2g2e2| d2B2G2B2 A4B2c2| 
d2B2G2B2 c2A2F2A2| G2B2A2F2 G4B2c2| d2g2f2g2 e2c2A2c2| B4G4 G4:| 
|: B2c2| d2g2f2g2 e2f2g4| e2f2g2f2 e2d2B2c2| d2g2f2g2 e2a2g2e2| d2B2G2B2 A4B2c2| 
d2B2G2B2 c2A2F2A2| G2B2A2F2 G4B2c2| d2g2f2g2 e2c2A2c2| B4G4 G4:| 
D: Wendy MacIsaac, That's What You Get, WMT004
